X:1
T:Translation
T:A Major              Hezekiah Moors, 1809
T:Counter by B. C. Johnston, 2018.
T:Charles Wesley, 1746 Funeral Hymns, No. 9           88. 88. (L. M.)
T:Treble-Tenor-Bass Transcribed from Province Harmony, 1809;
%%score [ 1 2 3 4 ]
L:1/8
Q:1/4=120
M:2/2
K:A
V:1 treble nm="Tr." snm="Tr."
V:2 treble nm="C." snm="C."
V:3 treble-8 nm="T." snm="T."
V:4 bass nm="B." snm="B."
V:1
"^Largo""_1. Thanks be to God, whose faithful love       Hath  called  another     to    his      breast,      Trans–la–ted  him    to      joys    a  –  bove,\n2.  He  the  good  fight of faith hath won,       He  heard  with  joy  the  welcome word:        Hi –ther come up,   thy    work   is    done\n3. Thanks be to God, through Christ alone,    Who  gave  our  friend  the  vic – to – ry:          O   Master,   say     to      me,  Well  done!" E4 | %1
 A4 B4 | c4 c4 | B4 A4 | G8 | z4 B4 | c4 A4 | F4 A4 | G4 B4 | A8 | z4 c4 | B4 A4 | G4 (A2 B2) | %13
 c4 B4 | B8 | %15
 z4"_1. To  mansions  of           e     –    ter – nal    rest.\n2. And reign for  e     –    ver         with  thy  Lord.\n3. May   I    re – joice      to           die     in    thee." c4 | %16
 d4 c4 | (Bc d2) (c2 B2) | A4 G4 | A8 |] %20
V:2
"_4. Thus  may  we  all  our warfare  end,        In   struggling  to  the    upper         skies         Our  last  tri –um –phant  moments  spend\n5.  O that we all may thus break through,    The  crown  with  holy   violence     seize,        The  starry  crown  to      conquest    due, \n6. Will  not  the  righteous  judge bestow      The  prize  on  all  who  seek  him   here,         And long, while so – jour – ning   below," A4 | %1
 A4 B4 | A4 c4 | d4 c4 | B8 | z4 B4 | A4 c4 | d4 c4 | B4 B4 | A8 | z4 A4 | B4 A4 | G4 (A2 B2) | %13
 A4 B4 | B8 | %15
 z4"_4. And grasp in  death      th’im – mor – tal  prize.\n5. The crown of  life         and       righteousness.\n6. To  see  their  much –  loved     Lord  ap –pear?" A4 | %16
 F4 E4 | (DE F2) (c2 B2) | c4 B4 | A8 |] %20
V:3
"_7.  We  all  shall  see  our  life  ap–pear,      Our   hidden   life   in    Je – sus     found,       Our dust th’arch–an–gel’s voice shall hear,\n8. O what a soul-o’erpow’ring thought!     ’Tis    ec – sta – sy   too   great   to   bear!         We   all   at    once  shall    be    up –caught,\n9.  E – ter – ni –ty stands forth in sight!      We  plunge  us  in  that  boundless   sea,           Ex –pa– tiate  in    those  plains   of   light," A4 | %1
 c4 B4 | A4 e4 | d4 c4 | B8 | z4 G4 | A4 c4 | d4 c4 | B4 (e2 d2) | c8 | z4 e4 | d4 c4 | %12
 B4 (c2 d2) | e4 ^d4 | e8 | %15
 z4"_7. And  kindle    at             the     trumpet’s sound.\n8. And meet our Je     –     sus        in   the    air.\n9. The  regions   of            e    –    ter – ni  –  ty!" e4 | %16
 f4 e4 | (de f2) (e2 d2) | c4 B4 | A8 |] %20
V:4
 A,,4 | A,,4 E,4 | A,4 A,4 | D,4 A,,4 | E,8 | z4 E,4 | A,,4 A,,4 | D,4 A,4 | E,4 E,4 | A,8 | %10
 z4 A,4 | B,4 C4 | D4 (C2 B,2) | A,4 B,4 | E,8 | z4 A,4 | D,4 A,,4 | %17
"______________________________________________________________\nEdited by B. C. Johnston, 2018\n   1. Measure 15, \nBass\n: note changed from D to E, apparently a misprint.\n   2. Counter part written." B,,4 (C,2 D,2) | %18
 E,4 E,4 | A,,8 |] %20

